X: 17771
T: Honey, Lemon And Ginger
R: slip jig
M: 9/8
K: Ddorian
~D3 DFA B2 A|~D3 DFA GEC|~D3 ~D3 Bcd|cBA AGE EDC:|
|:D2 d dcA GAc|AGE EDC A,CE|D2 d dcA dcA|def edc A2 ^c|
d2 D dcA GAc|AGE EDC A,2 ^C|~D3 ^F2 G A2 d|c2 A AGE EDC:|

